X: 1
T: The Inimitable Derek
T: 8x32R 3C (Roy Goldring, Three Dances 2006)
P: The Woody Woodpecker
C: Donald Ridley
C: from John Chambers, arr. T. Traub 3-7-08
M: 4/4
L: 1/8
K: F
|: C2 |"F"AccA "C/F"FcAF|"Bb"DFFD "D/Bb"B,2 D2|"F"CFFA "A/F"cAFA|"C"Gcc=B "E/C7"c2 C2|"F"AccA "C/F"FcAF|
"Bb"DFFD "Gm"B,2 D2|"F"CFFA "E/C7"GcBG|"F"A2 F2 "F"F2:||:"F7"Bc|"Bb"dBBd "D/Bb"fdBd|"F"AccA "F"F2 "G7"GF|
"C"EccE "E/C"cEEc|"F"AccA "A/F7"c2 Ac|"Bb"dBBd "D/Bb"fdBd|"F"AccA "G7"F2 GF|"C"EccE "E/C7"GccG|"F"A2 F2 F2:|